X:1
T:Send Us Showers of Blessing
T:Send Us Showers of Blessing
T:Ira David Sankey 
T:Frances Jane (Fanny) Crosby, 1891
T:Public Domain Courtesy of the Cyber Hymnal™
C:Ira David Sankey
Z:Public Domain
Z:Courtesy of the Cyber Hymnal™
%%score ( 1 2 ) ( 3 4 )
L:1/8
Q:1/4=90
M:6/8
K:D
V:1 treble 
V:2 treble 
V:3 bass 
V:4 bass 
V:1
 [FA]>[^E^G][FA] [=GB]2 [FA] | [FA]2 [EG] [EG]2 z | [EG]>[^DF][EG] [FA]2 [CE] | [EG]3 [DF]2 z | %4
w: 1.~Hear us, O Sav- ior,|while we pray,|Hum- bly our need con-|fess- ing;|
w: 2.~Know- ing Thy love, on|Thee we call,|Bold- ly Thy throne ad-|dress- ing;|
w: 3.~Trust- ing Thy word that|can- not fail,|Mas- ter, we claim Thy|prom- ise;|
 [DB]>[C^A][DB] [Gd]2 [GB] | [GB]2 [FA] [FA]2 z | [EA]>[E^G][EA] [GB][Gc][Gd] | ([Ac-]3 [Gc]2) z || %8
w: Grant us the prom- ised|showers to- day,|Send them up- on us, O|Lord. *|
w: Plead- ing that showers of|grace may fall,|Send them up- on us, O|Lord. *|
w: Oh, that our faith may|now pre- vail,|Send us the show- ers, O|Lord. *|
"^Refrain" [Fd]3 [Ac]2 [GB] | [FA]3 [DF]2 z | [EG]3 [Gc]2 [GB] | [GB]3 [FA]2 z | %12
w: ||||
w: Send showers of|bless- ing,|Send showers re-|fresh- ing;|
w: ||||
 [Ad]2 [Ac] ed[GB] | [FA]3 [Fd]2 z | [Ec]2 [EA] [GB]2 [Gc] | [Fd]3- [Fd]2 z |] %16
w: ||||
w: Send us show- ers of|bless- ing;|Send them, Lord, we|pray. *|
w: ||||
V:2
 x6 | x6 | x6 | x6 | x6 | x6 | x6 | x6 || x6 | x6 | x6 | x6 | x3 B2 x | x6 | x6 | x6 |] %16
V:3
 [D,D]>[D,D][D,D] [D,D]2 [D,D] | [A,C]2 [A,C] [A,C]2 z | [A,,A,]>[A,,A,][A,,A,] [A,,A,]2 [A,,A,] | %3
 [D,A,]3 [D,A,]2 z | G,>G,G, [G,B,]2 [G,D] | [D,D]2 [D,D] [D,D]2 z | %6
 [E,C]>[E,B,][E,C] [E,D][E,C][E,B,] | A,3 [A,,A,]2 z || [D,A,]3 [D,A,]2 [D,D] | [D,D]3 [D,A,]2 z | %10
 [A,,A,]3 [A,,E]2 [A,,C] | [D,D]3 [D,D]2 z | [F,D]2 [F,D] [G,D]2 [G,D] | [D,D]3 [D,A,]2 z | %14
 A,2 [A,C] [A,E]2 [A,,A,] | [D,A,]3- [D,A,]2 z |] %16
V:4
 x6 | x6 | x6 | x6 | G,>G,G, x3 | x6 | x6 | A,3- x3 || x6 | x6 | x6 | x6 | x6 | x6 | A,2 x4 | x6 |] %16

